!!!COM: Palestrina, Giovanni Perluigi da
!!!OPR: Ad fugam
!!!OTL: Credo
**kern	**kern	**kern	**kern
*Ibass	*Itenor	*Icalto	*Icant
!Bassus	!Tenor	!Altus	!Cantus
*clefF4	*clefGv2	*clefG2	*clefG2
*k[]	*k[]	*k[]	*k[]
*G:mix	*G:mix	*G:mix	*G:mix
*M4/2	*M4/2	*M4/2	*M4/2
=1	=1	=1	=1
1G	1r	0r	0r
2F	1c	.	.
2F	.	.	.
=2	=2	=2	=2
2G	2B	2r	1r
2G	2B	2g	.
1A	2c	2g	2r
.	2c	2f#	2cc
=3	=3	=3	=3
1G	1d	1g	2cc
.	.	.	2b
1r	1c	2e	1cc
.	.	2g	.
=4	=4	=4	=4
2r	1r	2f	2a
2A	.	2e	2cc
2B	2r	1d	2b
[2d	2d	.	2a
=5	=5	=5	=5
2d]	2e	0r	1g
2c	1g	.	.
1d	.	.	1r
.	2f#	.	.
=6	=6	=6	=6
2c	1g	2r	1r
2B	.	2g	.
1A	2f	2a	2r
.	2e	2cc	2cc
=7	=7	=7	=7
0r	1d	2b	2dd
.	.	2.a	2ff
.	1r	.	2ee
.	.	4g	.
.	.	4f	[2dd
.	.	4e	.
=8	=8	=8	=8
2r	1r	2f	4dd]
.	.	.	4cc
1G	.	2g	4b
.	.	.	4a
.	2r	1e	2b
2A	[2c	.	2cc
=9	=9	=9	=9
2F	2c]	2r	1a
2D	2d	2a	.
2.G	2B	1b	2r
.	2G	.	2dd
4F	.	.	.
=10	=10	=10	=10
2E	2.c	2g	1ee
1A	.	2e	.
.	4B	.	.
.	2A	2.a	2cc
2F	[2d	.	2a
.	.	4a	.
=11	=11	=11	=11
1G	2d]	2g	2.dd
.	2B	1g	.
.	.	.	4dd
1C	1c	.	2cc
.	.	2e	[2cc
=12	=12	=12	=12
2r	1F	4f	2cc]
.	.	4g	.
2D	.	4a	2a
.	.	4f	.
2G	2r	1g	4b
.	.	.	4cc
2G	2G	.	4dd
.	.	.	4b
=13	=13	=13	=13
1A	2c	1e	1cc
.	2c	.	.
2D	1d	1f	1a
[2d	.	.	.
=14	=14	=14	=14
2d]	2G	2r	1b
2B	1g	2d	.
1c	.	2g	2r
.	2e	2g	2g
=15	=15	=15	=15
1A	1f	1a	2cc
.	.	.	2cc
1G	1d	1b	1dd
=16	=16	=16	=16
1r	1c	1cc	1ee
1d	1r	2a	1ff
.	.	[2b	.
=17	=17	=17	=17
1G	1g	4b]	2dd
.	.	4a	.
.	.	2.g	2.ee
2A	1c	.	.
.	.	4f#	4dd
2A	.	2f#	[2cc
=18	=18	=18	=18
1G	2d	1g	4cc]
.	.	.	4b
.	2d	.	2b
2r	1c	1e	1cc
[2A	.	.	.
=19	=19	=19	=19
2A]	2r	0r	1a
2F	1d	.	.
2G	.	.	1r
2G	2B	.	.
=20	=20	=20	=20
1A	2c	2r	1r
.	2c	2.a	.
1D	1d	.	2r
.	.	4a	.
.	.	2f	[2dd
=21	=21	=21	=21
1r	1G	2g	4dd]
.	.	.	4dd
.	.	2g	2b
2r	1r	2a	2cc
2A	.	2a	2cc
=22	=22	=22	=22
2B	2r	1d	2dd
2B	2d	.	2dd
1c	2e	1r	1g
.	2e	.	.
=23	=23	=23	=23
2A	1f	0r	0r
2d	.	.	.
2d	2d	.	.
2c	2g	.	.
=24	=24	=24	=24
2B	2g	2r	1r
2A	2f	2a	.
1G	2e	1b	2r
.	2d	.	2dd
=25	=25	=25	=25
0r	1c	1cc	1ee
.	1r	2a	1ff
.	.	2b-	.
=26	=26	=26	=26
1r	0r	2b-	2dd
.	.	2g	2ee
2.A	.	1a	2ee
.	.	.	2cc
4A	.	.	.
=27	=27	=27	=27
2B	2.d	1g	1dd
2B	.	.	.
.	4d	.	.
2c	2e	1r	1cc
2A	2e	.	.
=28	=28	=28	=28
2.d	2f	0r	0r
.	2d	.	.
4d	.	.	.
2c	2.g	.	.
2B	.	.	.
.	4g	.	.
=29	=29	=29	=29
2A	2f	0r	0r
2G	2e	.	.
1F	2d	.	.
.	2c	.	.
=30	=30	=30	=30
1G	1B	2.d	1r
.	.	4d	.
1r	1c	2e	2.g
.	.	2e	.
.	.	.	4g
=31	=31	=31	=31
2.D	1r	2f#	2a
.	.	2.a	2a
4D	.	.	.
2G	2.G	.	2b
.	.	4g	.
4G	.	[2g	[2dd
4G	4G	.	.
=32	=32	=32	=32
2A	2c	2g]	4dd]
.	.	.	4cc
2A	4c	2f#	1cc
.	4c	.	.
1G	2d	[1g	.
.	2d	.	2b
=33	=33	=33	=33
2r	1c	1g]	0cc
2E	.	.	.
2F#	2r	1r	.
2F#	2A	.	.
=34	=34	=34	=34
1G	2B	1r	0r
.	2B	.	.
2A	1c	2r	.
2A	.	2e	.
=35	=35	=35	=35
1D	2d	2f#	2r
.	2d	2f#	2a
1r	1G	2g	2b
.	.	4g	2b
.	.	4g	.
=36	=36	=36	=36
2r	1r	1a	2cc
2A	.	.	4cc
.	.	.	4cc
2G	2r	1d	1dd
2F	2d	.	.
=37	=37	=37	=37
4E	2c	1r	1g
4F	.	.	.
4G	2B	.	.
4E	.	.	.
1F	4A	2r	1r
.	4B	.	.
.	4c	2a	.
.	4A	.	.
=38	=38	=38	=38
2G	1B	2g	2r
2D	.	2f	2dd
1E	2c	4e	2cc
.	.	4f	.
.	2G	4g	2b
.	.	4e	.
=39	=39	=39	=39
2r	1A	2f	4a
.	.	.	4b
2C	.	2.e	4cc
.	.	.	4a
1D	2r	.	2b
.	.	4d	.
.	2F	[2d	[2a
=40	=40	=40	=40
1E	1G	2d]	4a]
.	.	.	4g
.	.	2c#	1g
1D	1A	[1d	.
.	.	.	2f#
=41	=41	=41	=41
0G	0G	0d]	0g
=42	=42	=42	=42
0r	0r	1g	1r
.	.	2a	1cc
.	.	2a	.
=43	=43	=43	=43
1r	0r	1f#	2dd
.	.	.	2dd
1G	.	1g	1b
=44	=44	=44	=44
2A	1c	1e	1cc
2A	.	.	.
1F#	2d	1r	1a
.	2d	.	.
=45	=45	=45	=45
1G	1B	2r	1r
.	.	2.g	.
1E	1c	.	2r
.	.	4g	.
.	.	2g	[2cc
=46	=46	=46	=46
2.F	1A	2f	4cc]
.	.	.	4cc
.	.	2.a	2cc
4F	.	.	.
2G	2.B	.	2b
.	.	4g	.
2G	.	[2g	[2dd
.	4B	.	.
=47	=47	=47	=47
2A	2c	2g]	4dd]
.	.	.	4cc
2A	2c	2f#	1cc
1G	2d	2g	.
.	2d	2g	2b
=48	=48	=48	=48
1A	1c	2f	2cc
.	.	2.e	2cc
2D	1d	.	2b
.	.	4d	.
2D	.	[2d	[2a
=49	=49	=49	=49
2E	2G	2d]	4a]
.	.	.	4g
2E	2G	2c#	1g
1D	2A	[1d	.
.	2A	.	2f#
=50	=50	=50	=50
1r	1G	1d]	0g
1G	1r	2r	.
.	.	[2g	.
=51	=51	=51	=51
1A	1c	2g]	2r
.	.	2f#	1cc
1G	1d	2g	.
.	.	2d	2b
=52	=52	=52	=52
1E	1c	2e	2cc
.	.	2g	2g
2.F	1A	2f	2a
.	.	[2a	2cc
4F	.	.	.
=53	=53	=53	=53
2G	2.B	4a]	2b
.	.	4g	.
2G	.	1g	2.dd
.	4B	.	.
1A	2c	.	.
.	.	.	4cc
.	2c	2f#	[2cc
=54	=54	=54	=54
1G	1d	1g	2cc]
.	.	.	2b
1C	1c	2r	1cc
.	.	2g	.
=55	=55	=55	=55
0r	1F	2a	2r
.	.	2a	2cc
.	1r	2g	2dd
.	.	2f	2dd
=56	=56	=56	=56
2r	1r	4e	2cc
.	.	4f	.
2G	.	4g	2b
.	.	4e	.
2A	2r	2f	4a
.	.	.	4b
2A	2c	[2e	4cc
.	.	.	4a
=57	=57	=57	=57
2G	2d	4e]	2b
.	.	4d	.
2F	2d	2d	2.a
1E	2c	1e	.
.	.	.	4g#
.	2B	.	2g#
=58	=58	=58	=58
2F	1A	0r	1a
1A	.	.	.
.	2B	.	1r
2G	[2d	.	.
=59	=59	=59	=59
2F	2d]	2r	1r
2E	2c	2e	.
2G	2B	2e	2r
2F	2A	2d	2a
=60	=60	=60	=60
1E	2c	1e	2a
.	2B	.	2g#
1r	1A	2e	1a
.	.	2f	.
=61	=61	=61	=61
0r	0r	2d	2a
.	.	1g	2b
.	.	.	2g
.	.	2f	[2cc
=62	=62	=62	=62
0r	0r	2e	2cc]
.	.	2g	2b
.	.	2f	2a
.	.	2e	2cc
=63	=63	=63	=63
2r	1r	2d	2b
2D	.	2f	2a
2E	2r	1e	2g
2E	2G	.	2b
=64	=64	=64	=64
2F#	2A	0r	1a
2F#	2A	.	.
1G	2B	.	1r
.	2B	.	.
=65	=65	=65	=65
2A	1c	0r	0r
2A	.	.	.
2B	2d	.	.
2B	2d	.	.
=66	=66	=66	=66
2c	2e	0r	0r
2c	2e	.	.
2.d	2f	.	.
.	2f	.	.
4c	.	.	.
=67	=67	=67	=67
2B	2.g	0r	0r
2.c	.	.	.
.	4f	.	.
.	2e	.	.
4B	.	.	.
4A	[2f	.	.
4G	.	.	.
=68	=68	=68	=68
1F	4f]	2r	1r
.	4e	.	.
.	4d	2a	.
.	4c	.	.
1G	1B	2.g	2r
.	.	.	2dd
.	.	4f	.
=69	=69	=69	=69
0r	1c	2e	2.cc
.	.	2g	.
.	.	.	4b
.	1r	2f	2a
.	.	2e	2cc
=70	=70	=70	=70
0r	0r	1d	2b
.	.	.	2a
.	.	2r	1g
.	.	2g	.
=71	=71	=71	=71
0r	0r	2.a	2r
.	.	.	2cc
.	.	4a	.
.	.	2f	2.dd
.	.	[2g	.
.	.	.	4dd
=72	=72	=72	=72
0r	0r	2g]	2b
.	.	2e	1cc
.	.	1f	.
.	.	.	2a
=73	=73	=73	=73
0r	0r	2d	1b
.	.	2g	.
.	.	2e	2g
.	.	[2a	2cc
=74	=74	=74	=74
2r	1r	2a]	2a
2G	.	2.g	1dd
2A	2r	.	.
.	.	8f	.
.	.	8e	.
2A	2c	2f#	[2cc
=75	=75	=75	=75
1G	2d	1g	4cc]
.	.	.	8b
.	.	.	8a
.	2d	.	2b
2r	1c	2r	1cc
2E	.	2g	.
=76	=76	=76	=76
1F	2r	2f	2r
.	2A	2a	2cc
1G	1B	2g	2b
.	.	2g	2dd
=77	=77	=77	=77
2A	1c	2e	2cc
2A	.	1f	2cc
2D	2d	.	2a
2D	2d	[2d	[2b
=78	=78	=78	=78
1E	2G	4d]	2b]
.	.	8c	.
.	.	8B	.
.	2G	2c#	2.g
1D	1A	1d	.
.	.	.	8f
.	.	.	8e
.	.	.	2f#
=79	=79	=79	=79
1G	1G	2.d	1g
.	.	4d	.
1r	1c	2e	2.g
.	.	2e	.
.	.	.	4g
=80	=80	=80	=80
2.D	1r	1f#	2a
.	.	.	2a
4D	.	.	.
2G	2.G	2.g	1b
2G	.	.	.
.	4G	4g	.
=81	=81	=81	=81
1A	2c	2e	2.cc
.	2c	2e	.
.	.	.	4cc
2F	1d	1f	2a
2D	.	.	2a
=82	=82	=82	=82
2G	2B	1g	1b
2G	2G	.	.
1A	2c	2e	1cc
.	2c	2e	.
=83	=83	=83	=83
2r	1d	2f	2a
2D	.	2.a	2a
2G	2r	.	2b
.	.	4g	.
4G	2G	[2g	[2dd
4G	.	.	.
=84	=84	=84	=84
1A	2c	2g]	4dd]
.	.	.	4cc
.	4c	2f#	1cc
.	4c	.	.
1G	1d	1g	.
.	.	.	2b
=85	=85	=85	=85
2r	1c	0r	1cc
2c	.	.	.
2A	2r	.	1r
[2d	2f	.	.
=86	=86	=86	=86
2d]	2d	0r	0r
2B	1g	.	.
2.c	.	.	.
.	2e	.	.
4B	.	.	.
=87	=87	=87	=87
2A	2.f	1r	0r
1B-	.	.	.
.	4e	.	.
.	2d	2r	.
2G	[2e	[2g	.
=88	=88	=88	=88
1A	2e]	2g]	2r
.	2c	2f#	1cc
1G	1d	1g	.
.	.	.	2b
=89	=89	=89	=89
0r	1c	2a	1cc
.	.	2cc	.
.	1r	2b	2dd
.	.	2a	2ff
=90	=90	=90	=90
0r	0r	1g	2ee
.	.	.	2dd
.	.	2r	1cc
.	.	[2a	.
=91	=91	=91	=91
0r	0r	2a]	2r
.	.	2g	1dd
.	.	2f	.
.	.	2e	2cc
=92	=92	=92	=92
0r	0r	2d	2b
.	.	4d	2a
.	.	4d	.
.	.	2e	2g
.	.	2g	4g
.	.	.	4g
=93	=93	=93	=93
1r	0r	2f	2a
.	.	2a	2cc
2.G	.	1g	2b
.	.	.	2dd
4G	.	.	.
=94	=94	=94	=94
2A	2.c	2e	1cc
2F	.	2f	.
.	4c	.	.
2D	2d	2f	2a
2G	2B	[2g	2b
=95	=95	=95	=95
2E	2G	2g]	2b
2.A	2c	2e	1cc
.	2A	2e	.
4G	.	.	.
4F	[2d	[2f	2a
4E	.	.	.
=96	=96	=96	=96
1D	4d]	4f]	2a
.	4c	4e	.
.	4B	2.d	2.b
.	4A	.	.
1E	1G	.	.
.	.	4c#	4a
.	.	2c#	[2g
=97	=97	=97	=97
1D	1A	1d	4g]
.	.	.	4f#
.	.	.	2f#
2.d	1G	1r	1g
4d	.	.	.
=98	=98	=98	=98
2c	2.g	0r	0r
2B	.	.	.
.	4g	.	.
2A	2f	.	.
2G	2e	.	.
=99	=99	=99	=99
2B	2d	0r	0r
2A	2c	.	.
2G	2e	.	.
2G	2d	.	.
=100	=100	=100	=100
2.A	2c	0r	0r
.	2c	.	.
4A	.	.	.
2G	2.d	.	.
2F	.	.	.
.	4d	.	.
=101	=101	=101	=101
2E	2c	2r	1r
2D	2B	2d	.
2F	2A	2d	2r
2E	2G	2c#	2g
=102	=102	=102	=102
1D	2B	2d	2g
.	2A	2a	2f#
1r	1G	2b	2g
.	.	2b	2dd
=103	=103	=103	=103
2r	1r	1cc	2ee
1A	.	.	2ee
.	2r	1a	1ff
2F	[2d	.	.
=104	=104	=104	=104
2G	2d]	2r	1dd
2G	2B	4g	.
.	.	4g	.
2A	2c	2f	2r
2A	2c	2e	4cc
.	.	.	4cc
=105	=105	=105	=105
2G	2d	2g	2b
2F	2d	2a	2a
2E	2c	2r	2cc
2D	2B	2d	2dd
=106	=106	=106	=106
2r	2A	2e	2r
2E	2G	1g	2g
1A	2r	.	2a
.	2A	2f#	[2cc
=107	=107	=107	=107
1G	1d	1g	2cc]
.	.	.	2b
2E	1c	1r	1cc
[2A	.	.	.
=108	=108	=108	=108
2A]	2A	1r	0r
2G	1d	.	.
2A	.	2r	.
2A	2c#	[2a	.
=109	=109	=109	=109
1B	2d	2a]	2r
.	2d	2g#	1dd
1A	1e	2a	.
.	.	2a	2cc#
=110	=110	=110	=110
2d	1d	2b	2dd
2d	.	2a	2dd
2c	2g	2r	2ee
2B	2g	2g	2dd
=111	=111	=111	=111
1A	2f	4a	2r
.	.	4b	.
.	2e	4cc	2cc
.	.	4a	.
1r	1d	2b	4dd
.	.	.	4ee
.	.	[2a	4ff
.	.	.	4dd
=112	=112	=112	=112
1G	1r	4a]	2ee
.	.	4g	.
.	.	1g	2.dd
1A	1c	.	.
.	.	.	4cc
.	.	2f#	[2cc
=113	=113	=113	=113
2G	1d	1g	2cc]
2G	.	.	2b
2A	2c	1r	1cc
2A	2c	.	.
=114	=114	=114	=114
2B	2d	1r	0r
2B	2d	.	.
1c	2e	1g	.
.	2e	.	.
=115	=115	=115	=115
0r	1f	1a	1cc
.	1r	2g	1dd
.	.	2g	.
=116	=116	=116	=116
1r	0r	2a	2cc
.	.	2a	2cc
1G	.	2b	2dd
.	.	2b	2dd
=117	=117	=117	=117
1c	1c	2.cc	2ee
.	.	.	2ee
.	.	4b	.
2.d	1f	4a	2.ff
.	.	4g	.
.	.	2a	.
4c	.	.	4ee
=118	=118	=118	=118
4B	2.g	1b	4dd
4A	.	.	4cc
2G	.	.	2dd
.	4f	.	.
2.c	4e	2g	1ee
.	4d	.	.
.	2c	[2cc	.
4B	.	.	.
=119	=119	=119	=119
4A	2.f	4cc]	2cc
4G	.	4b	.
1F	.	4a	2.ff
.	4e	4g	.
.	4d	2a	.
.	4c	.	4ee
[2G	[2B	[2b	4dd
.	.	.	4cc
=120	=120	=120	=120
2G]	2B]	4b]	2dd
.	.	4a	.
2C	1c	4g	2.ee
.	.	4f	.
4c	.	2e	.
4B	.	.	4dd
4A	2F	[2a	4cc
4G	.	.	4b
=121	=121	=121	=121
1F	4f	4a]	2a
.	4e	4g	.
.	4d	4f	2.dd
.	4c	4e	.
1G	1B	2d	.
.	.	.	4cc
.	.	[2g	4b
.	.	.	4a
=122	=122	=122	=122
2E	1c	4g]	2g
.	.	4f	.
2A	.	2.e	2.cc
2F	2A	.	.
.	.	4d	4b
4E	2d	[2d	[2a
4D	.	.	.
=123	=123	=123	=123
1E	2B	2d]	4a]
.	.	.	4g
.	4A	2c#	1g
.	4G	.	.
1D	1A	1d	.
.	.	.	2f#
=124	=124	=124	=124
[0G	[0G	[0d	[0g
=125	=125	=125	=125
0G]	0G]	0d]	0g]
==	==	==	==
*-	*-	*-	*-
!!!CDT: 1525/^1526/-1594/2/2
!!!OCY: Italia
!!!AGN: Mass (Canonic)
!!!AST: renaissance, vocal
!!!ASW: Motet (Maffoni)
!!!PWK: Masses, Book 2
!!!RNB: Cadence finals: C
!!!YOR: Le Opere Complete, v. 4, p. 74
!!!YOO: Rome, Italy: Fratelli Scalera
!!!END: 1992//
!!!EED: John Miller
!!!YEC: Copyright 2000, John Miller
!!!YEN: United States of America
!!!YEM: Rights to all derivative electronic formats reserved.
!!!YEM: Refer to licensing agreement for further details.
!!!YEM: This file must be accompanied by the licensing agreement.
!!!YEM: A copy of the licensing agreement may be found at http://www.music-cog.ohio-state.edu/HumdrumDatabases/Palestrina/license.txt
!!!EMD: converted to Humdrum by Bret Aarden
